**kern	**kern	**dynam
*part1	*part1	*part1
*staff2	*staff1	*
*I"Piano	*	*
*clefF4	*clefG2	*
*k[]	*k[]	*
=1	=1	=1
4GGG 4GG	2B 2g	.
2GG 2Fn	.	.
.	4G 4fn 4g	>
=	=	=
4CC 4C	2G 2e 2g	.
2E 2G	.	.
.	4G 4c 4e	.
=	=	=
4EEE 4EE	2c 2g 2cc	.
2E 2G	.	.
.	4c 4e 4g	.
=	=	=
4GGG 4GG	2g 2cc 2ee	]
2G 2B-X	.	.
.	4f 4b-X 4dd	.
=	=	=
4AAA 4AA	4f 4b-X 4dd	.
2E 2A	4e 4a 4cc#X	.
.	4a 4cc# 4gg	.
=	=	=
4DD 4D	2a 2dd 2ff	.
2D 2A	.	.
.	4g 4b-X 4cc#X	.
=	=	=
4FFF 4FF	2f 2a 2dd	.
2D 2F	.	.
.	4d 4f 4a-X	.
=	=	=
*-	*-	*-
!!!system-decoration: {(s1,s2)}
